X: 1
T: Lady Mondagreen
M: 4/4
L: 1/8
R: reel
K: Ador
EAAG ABcA|BG~G2Bcdg|~e2dg ecAG|FAce dBGF|!
EAAG ABcA|BG~G2Bcdg|~e2dg eaag|1ecdB cAAG:|2ecdB cAAe||!
~a2ea aged|ceAc BGGF|EAcA FAcA|GBdB ABce|!
~a2ea aged|ceAc BGG2|FAce dBGB|cAAG ABce|!
~a2ea aged|ceAc BGGF|EAcA FAcA|GBdB cBAG|!
EAAG ABcA|BG~G2Bcdg|~e2dg eaag|gedB cAAG||!
